svg/other/random_fill.svg

<svg xmlns="http://www.w3.org/2000/svg" width="24" height="24" viewBox="0 0 24 24"><g fill="none" fill-rule="evenodd"><path d="M24,0 L24,24 L0,24 L0,0 L24,0 Z M12.5935,23.2578 L12.5819,23.2595 L12.5109,23.295 L12.4919,23.2987 L12.4767,23.295 L12.4057,23.2595 C12.3958,23.2564 12.387,23.259 12.3821,23.2649 L12.378,23.2758 L12.3609,23.7031 L12.3659,23.7235 L12.3769,23.7357 L12.4805,23.8097 L12.4953,23.8136 L12.5071,23.8097 L12.6107,23.7357 L12.6233,23.7197 L12.6267,23.7031 L12.6096,23.2758 C12.6076,23.2657 12.601,23.2593 12.5935,23.2578 Z M12.8584,23.1453 L12.8445,23.1473 L12.6598,23.2397 L12.6499,23.2499 L12.6472,23.2611 L12.6651,23.6906 L12.6699,23.7034 L12.6784,23.7105 L12.8793,23.8032 C12.8914,23.8069 12.9022,23.803 12.9078,23.7952 L12.9118,23.7812 L12.8777,23.1665 C12.8753,23.1546 12.8674,23.147 12.8584,23.1453 Z M12.143,23.1473 C12.1332,23.1424 12.1222,23.1453 12.1156,23.1526 L12.1099,23.1665 L12.0758,23.7812 C12.0751,23.7927 12.0828,23.8019 12.0926,23.8046 L12.1083,23.8032 L12.3092,23.7105 L12.3186,23.7024 L12.3225,23.6906 L12.3404,23.2611 L12.3372,23.2485 L12.3278,23.2397 L12.143,23.1473 Z"/><path fill="#09244B" d="M18,3 C19.597725,3 20.903664,4.24892392 20.9949075,5.82372764 L21,6 L21,18 C21,19.597725 19.7511226,20.903664 18.1762773,20.9949075 L18,21 L6,21 C4.40232321,21 3.09633941,19.7511226 3.00509271,18.1762773 L3,18 L3,6 C3,4.40232321 4.24892392,3.09633941 5.82372764,3.00509271 L6,3 L18,3 Z M8.5,14 C7.72030118,14 7.079551,14.5949121 7.00686655,15.3555442 L7,15.5 L7.00686655,15.6544558 C7.079551,16.4150879 7.72030118,17.01 8.5,17.01 C9.27969882,17.01 9.920449,16.4150879 9.99313345,15.6544558 L10,15.51 L9.99313345,15.3555442 C9.920449,14.5949121 9.27969882,14 8.5,14 Z M15.5,14 C14.7203294,14 14.0795543,14.5949121 14.0068668,15.3555442 L14,15.51 C14,16.3384 14.6716,17.01 15.5,17.01 C16.2796706,17.01 16.9204457,16.4150879 16.9931332,15.6544558 L17,15.5 C17,14.6716 16.3284,14 15.5,14 Z M12,10.5 C11.2203294,10.5 10.5795543,11.0949121 10.5068668,11.8555442 L10.5,12.01 C10.5,12.8384 11.1716,13.51 12,13.51 C12.7796706,13.51 13.4204457,12.9150879 13.4931332,12.1544558 L13.5,12 C13.5,11.1716 12.8284,10.5 12,10.5 Z M8.5,7 C7.72030118,7 7.079551,7.59488554 7.00686655,8.35553954 L7,8.5 L7.00686655,8.65446046 C7.079551,9.41511446 7.72030118,10.01 8.5,10.01 C9.27969882,10.01 9.920449,9.41511446 9.99313345,8.65446046 L10,8.51 L9.99313345,8.35553954 C9.920449,7.59488554 9.27969882,7 8.5,7 Z M15.5,7 C14.7203294,7 14.0795543,7.59488554 14.0068668,8.35553954 L14,8.51 C14,9.33843 14.6716,10.01 15.5,10.01 C16.2796706,10.01 16.9204457,9.41511446 16.9931332,8.65446046 L17,8.5 C17,7.67157 16.3284,7 15.5,7 Z"/></g></svg>

<svg xmlns="http://www.w3.org/2000/svg" width="24" height="24"><g fill="none" fill-rule="evenodd"><path d="M24 0v24H0V0zM12.594 23.258l-.012.002-.071.035-.02.004-.014-.004-.071-.036c-.01-.003-.019 0-.024.006l-.004.01-.017.428.005.02.01.013.104.074.015.004.012-.004.104-.074.012-.016.004-.017-.017-.427c-.002-.01-.009-.017-.016-.018m.264-.113-.014.002-.184.093-.01.01-.003.011.018.43.005.012.008.008.201.092c.012.004.023 0 .029-.008l.004-.014-.034-.614c-.003-.012-.01-.02-.02-.022m-.715.002a.023.023 0 0 0-.027.006l-.006.014-.034.614c0 .012.007.02.017.024l.015-.002.201-.093.01-.008.003-.011.018-.43-.003-.012-.01-.01z"/><path fill="#09244B" d="M18 3a3 3 0 0 1 2.995 2.824L21 6v12a3 3 0 0 1-2.824 2.995L18 21H6a3 3 0 0 1-2.995-2.824L3 18V6a3 3 0 0 1 2.824-2.995L6 3zM8.5 14a1.5 1.5 0 0 0-1.493 1.356L7 15.5l.007.154a1.5 1.5 0 0 0 2.986 0L10 15.51l-.007-.154A1.5 1.5 0 0 0 8.5 14m7 0a1.5 1.5 0 0 0-1.493 1.356L14 15.51a1.5 1.5 0 0 0 2.993.144L17 15.5a1.5 1.5 0 0 0-1.5-1.5M12 10.5a1.5 1.5 0 0 0-1.493 1.356l-.007.154a1.5 1.5 0 0 0 2.993.144L13.5 12a1.5 1.5 0 0 0-1.5-1.5M8.5 7a1.5 1.5 0 0 0-1.493 1.356L7 8.5l.007.154a1.5 1.5 0 0 0 2.986 0L10 8.51l-.007-.154A1.5 1.5 0 0 0 8.5 7m7 0a1.5 1.5 0 0 0-1.493 1.356L14 8.51a1.5 1.5 0 0 0 2.993.144L17 8.5A1.5 1.5 0 0 0 15.5 7"/></g></svg>
